X:1
T:Title
%%score { ( 1 3 ) | ( 2 4 ) }
L:1/8
M:4/4
K:Eb
V:1 treble nm="Grand Piano"
V:3 treble 
V:2 bass 
V:4 bass 
V:1
 z4 z2[Q:1/4=100] [GB]2 | [GB]3 [GB] [FA]2 [DF]2 | [EG]6 [GB]2 | [Ac]3 [Ae] [GB]2 [EG]2 | %4
 [DF]6 [DB]2 | [Ee]3 [Gd] [Ge]2 G2 | F2 A2 d2 c2 | B3 B A2 [DF]2 |[M:3/4] E6 |[M:1/4] G2 | %10
[M:4/4] B6 z2 | c6 z2 | [GB]3 [Ac] [GB]2 G2 | F6 B2 | e3 [Ad] [Ge]2 G2 | F2 A2 d2 c2 | %16
 B3 B A2 [DF]2 |[M:3/4] E6 |] %18
V:2
 z4 z2 [E,B,]2 | [E,B,]3 [E,B,] [B,,B,]2 [B,,B,]2 | [E,B,]6 [E,E]2 | [A,E]3 [A,C] [E,E]2 [E,B,]2 | %4
 [B,,B,]6 [A,B,]2 | [G,B,]3 [F,B,] [E,B,]2 [E,B,E]2 | [A,C]2 [A,CF]2 [=A,C_G]2 [A,EG]2 | %7
 [B,EG]3 [B,EG] [B,F]2[K:bass] [B,,A,]2 |[M:3/4] [E,G,]6 |[M:1/4][K:treble] E2 | %10
[M:4/4] G6[K:bass][K:treble] z2 | A6 z2 | [E,E]3 [E,E] [E,E]2 [E,B,E]2 | [B,D]6 [A,B,D]2 | %14
 [G,B,E]3 [F,B,] [E,B,]2 [E,B,E]2 | [A,C]2 [A,CF]2 [=A,C_G]2 [A,EG]2 | %16
 [B,EG]3 [B,EG] [A,F]2[K:bass] [B,,A,]2 |[M:3/4] [E,G,]6 |] %18
V:3
 x8 | x8 | x8 | x8 | x8 | x8 | x8 | x8 |[M:3/4] x6 |[M:1/4] x2 |[M:4/4] z2 E2 E2 e2 | z2 E2 E2 e2 | %12
 x8 | x8 | x8 | x8 | x8 |[M:3/4] x6 |] %18
V:4
 x8 | x8 | x8 | x8 | x8 | x8 | x8 | x6[K:bass] x2 |[M:3/4] x6 |[M:1/4][K:treble] x2 | %10
[M:4/4] z2[K:bass] E,2 E,2[K:treble] G2 | z2 A,2 A,2 [A,CA]2 | x8 | x8 | x8 | x8 | x6[K:bass] x2 | %17
[M:3/4] x6 |] %18

